source/assets/images/icons/edition-small.svg

<?xml version="1.0" encoding="UTF-8" standalone="no"?>
<svg width="14px" height="16px" viewBox="0 0 14 16" version="1.1" xmlns="http://www.w3.org/2000/svg" xmlns:xlink="http://www.w3.org/1999/xlink" xmlns:sketch="http://www.bohemiancoding.com/sketch/ns">
    <!-- Generator: Sketch 3.2.2 (9983) - http://www.bohemiancoding.com/sketch -->
    <title>edition-small</title>
    <desc>Created with Sketch.</desc>
    <defs></defs>
    <g id="assets/icons" stroke="none" stroke-width="1" fill="none" fill-rule="evenodd" sketch:type="MSPage">
        <path d="M2.33223062,11.1333333 L0.0992438563,11.1333333 L0.0992438563,14.8 C2.40666352,15.6444444 3.92013233,16 6.35160681,16 L7.17036862,16 C11.4378544,16 13.125,14.8 13.125,11.8444444 L13.125,10.8666667 C13.125,8.64444444 12.2566163,7.71111111 9.80033081,7.15555556 L4.4907845,6.08888889 C3.22542533,5.77777778 2.80363894,5.26666667 2.80363894,4.22222222 L2.80363894,3.95555556 C2.80363894,2.44444444 3.69683365,1.88888889 5.97944234,1.88888889 L6.62452741,1.88888889 C7.93950851,1.88888889 9.15524575,2.04444444 10.1724953,2.46666667 L10.4950378,4.82222222 L12.6287807,4.82222222 L12.6287807,0.977777778 C10.5942817,0.311111111 8.73345936,0 6.57490548,0 L5.95463138,0 C1.73676749,0 0,1.17777778 0,4.08888889 L0,4.35555556 C0,6.62222222 0.744328922,7.44444444 3.32466919,8.08888889 L8.03875236,9.06666667 C9.89957467,9.48888889 10.4206049,9.93333333 10.4206049,11.2888889 L10.4206049,11.8888889 C10.4206049,13.6 9.6018431,14.1111111 7.02150284,14.1111111 L6.67414934,14.1111111 C5.03662571,14.1111111 3.84569943,13.9333333 2.65477316,13.4222222 L2.33223062,11.1333333 Z" id="edition-small" fill="#474747" sketch:type="MSShapeGroup"></path>
    </g>
</svg>

<svg width="14" height="16" viewBox="0 0 14 16" xmlns="http://www.w3.org/2000/svg"><title>edition-small</title><path d="M2.332 11.133H.1V14.8c2.307.844 3.82 1.2 6.252 1.2h.818c4.268 0 5.955-1.2 5.955-4.156v-.977c0-2.223-.868-3.156-3.325-3.71L4.49 6.088c-1.265-.312-1.686-.823-1.686-1.868v-.266c0-1.512.893-2.067 3.175-2.067h.645c1.315 0 2.53.154 3.547.577l.323 2.355h2.134V.978C10.593.31 8.732 0 6.574 0h-.62C1.737 0 0 1.178 0 4.09v.266C0 6.622.744 7.444 3.325 8.09l4.714.977c1.86.422 2.38.866 2.38 2.222v.6c0 1.71-.818 2.22-3.398 2.22h-.348c-1.637 0-2.828-.177-4.02-.688l-.322-2.29z" fill="#474747" fill-rule="evenodd"/></svg>
